Catalina-light/actions/16/im-irc.svg

<svg xmlns="http://www.w3.org/2000/svg" width="16" height="16" viewBox="0 0 16 16">
 <defs>
  <style id="current-color-scheme" type="text/css">
   .ColorScheme-Text { color:#5c616c; } .ColorScheme-Highlight { color:#5294e2; }
  </style>
 </defs>
 <path style="fill:currentColor" class="ColorScheme-Text" d="M 5.4042969 6 C 5.4042969 6 3.9980469 6.0003906 3.9980469 7.4003906 L 3.9980469 11.599609 C 3.9980469 12.375219 4.6363044 13 5.4277344 13 L 8.9980469 13 L 10.498047 15 L 11.998047 13 L 12.570312 13 C 12.570312 13 13.998047 12.999609 13.998047 11.599609 L 13.998047 7.4003906 C 13.998047 6.0003906 12.570312 6 12.570312 6 L 5.4042969 6 z"/>
 <path style="fill:currentColor;opacity:0.3" class="ColorScheme-Text" d="M 3.40625 2 C 3.40625 2 2 2.0003906 2 3.4003906 L 2 7.5996094 C 2 8.2278094 2.4207 8.7512875 3 8.9296875 L 3 6.4003906 C 3 5.0003906 4.40625 5 4.40625 5 L 11.572266 5 C 11.572266 5 11.768 5.0235375 12 5.0859375 L 12 3.4003906 C 12 2.0003906 10.572266 2 10.572266 2 L 3.40625 2 z"/>
</svg>

<svg width="16" height="16" viewBox="0 0 16 16" xmlns="http://www.w3.org/2000/svg">
<defs>
<style id="current-color-scheme" type="text/css">.ColorScheme-Text { color:#5c616c; } .ColorScheme-Highlight { color:#5294e2; }</style>
</defs>
<path class="ColorScheme-Text" d="m5.4043 6s-1.4062 3.906e-4 -1.4062 1.4004v4.1992c0 0.77561 0.63826 1.4004 1.4297 1.4004h3.5703l1.5 2 1.5-2h0.57226s1.4277-3.91e-4 1.4277-1.4004v-4.1992c0-1.4-1.4277-1.4004-1.4277-1.4004h-7.166z" fill="currentColor"/>
<path class="ColorScheme-Text" d="m3.4062 2s-1.4062 3.906e-4 -1.4062 1.4004v4.1992c0 0.6282 0.4207 1.1517 1 1.3301v-2.5293c0-1.4 1.4062-1.4004 1.4062-1.4004h7.166s0.19573 0.023538 0.42773 0.085938v-1.6855c0-1.4-1.4277-1.4004-1.4277-1.4004h-7.166z" fill="currentColor" opacity=".3"/>
</svg>
